svgs/sharp-regular/chart-user.svg

<svg xmlns="http://www.w3.org/2000/svg" viewBox="0 0 640 512"><!--! Font Awesome Pro 6.6.0 by @fontawesome - https://fontawesome.com License - https://fontawesome.com/license (Commercial License) Copyright 2024 Fonticons, Inc. --><path d="M208 48l384 0 0 320-281.8 0 14.4 48L592 416l48 0 0-48 0-320 0-48L592 0 208 0 160 0l0 48 0 48c17 0 33.2 3.3 48 9.3L208 48zM512 240l16-16 0-112-112 0-16 16 39 39-55 55-47-47-17-17L286.1 192l17 17 64 64 17 17 17-17 72-72 39 39zM160 176a48 48 0 1 1 0 96 48 48 0 1 1 0-96zm0 144a96 96 0 1 0 0-192 96 96 0 1 0 0 192zM83.7 400l152.6 0 19.2 64-191 0 19.2-64zM272 352L48 352 14.4 464 0 512l50.1 0 219.8 0 50.1 0-14.4-48L272 352z"/></svg>

<svg xmlns="http://www.w3.org/2000/svg" viewBox="0 0 640 512"><!--! Font Awesome Pro 6.4.0 by @fontawesome - https://fontawesome.com License - https://fontawesome.com/license (Commercial License) Copyright 2023 Fonticons, Inc. --><path d="M208 48H592V368H310.2l14.4 48H592h48V368 48 0H592 208 160V48 96c17 0 33.2 3.3 48 9.3V48zM512 240l16-16V112H416l-16 16 39 39-55 55-47-47-17-17L286.1 192l17 17 64 64 17 17 17-17 72-72 39 39zM160 176a48 48 0 1 1 0 96 48 48 0 1 1 0-96zm0 144a96 96 0 1 0 0-192 96 96 0 1 0 0 192zM83.7 400H236.3l19.2 64H64.5l19.2-64zM272 352H48L14.4 464 0 512H50.1 269.9 320l-14.4-48L272 352z"/></svg>
